chrome/img/svgs/settings-wheels.svg

<?xml version="1.0" encoding="UTF-8"?>
<svg width="50px" height="53px" viewBox="0 0 50 53" version="1.1" xmlns="http://www.w3.org/2000/svg" xmlns:xlink="http://www.w3.org/1999/xlink">
    <!-- Generator: Sketch 42 (36781) - http://www.bohemiancoding.com/sketch -->
    <title>Group 10</title>
    <desc>Created with Sketch.</desc>
    <defs>
        <filter x="-50%" y="-50%" width="200%" height="200%" filterUnits="objectBoundingBox" id="filter-1">
            <feOffset dx="0" dy="1" in="SourceAlpha" result="shadowOffsetOuter1"></feOffset>
            <feGaussianBlur stdDeviation="0.5" in="shadowOffsetOuter1" result="shadowBlurOuter1"></feGaussianBlur>
            <feColorMatrix values="0 0 0 0 0   0 0 0 0 0   0 0 0 0 0  0 0 0 0.2 0" type="matrix" in="shadowBlurOuter1" result="shadowMatrixOuter1"></feColorMatrix>
            <feMerge>
                <feMergeNode in="shadowMatrixOuter1"></feMergeNode>
                <feMergeNode in="SourceGraphic"></feMergeNode>
            </feMerge>
        </filter>
        <linearGradient x1="84.0005744%" y1="-21.4315792%" x2="145.009589%" y2="125.545021%" id="linearGradient-2">
            <stop stop-color="#ECECEC" offset="0%"></stop>
            <stop stop-color="#CCCCCC" offset="100%"></stop>
        </linearGradient>
        <filter x="-50%" y="-50%" width="200%" height="200%" filterUnits="objectBoundingBox" id="filter-3">
            <feOffset dx="0" dy="1" in="SourceAlpha" result="shadowOffsetOuter1"></feOffset>
            <feGaussianBlur stdDeviation="0.5" in="shadowOffsetOuter1" result="shadowBlurOuter1"></feGaussianBlur>
            <feColorMatrix values="0 0 0 0 0   0 0 0 0 0   0 0 0 0 0  0 0 0 0.2 0" type="matrix" in="shadowBlurOuter1" result="shadowMatrixOuter1"></feColorMatrix>
            <feMerge>
                <feMergeNode in="shadowMatrixOuter1"></feMergeNode>
                <feMergeNode in="SourceGraphic"></feMergeNode>
            </feMerge>
        </filter>
        <linearGradient x1="117.872518%" y1="-116.046563%" x2="145.009589%" y2="125.545021%" id="linearGradient-4">
            <stop stop-color="#F5F2F2" offset="0%"></stop>
            <stop stop-color="#F1F1F1" offset="28.0840922%"></stop>
            <stop stop-color="#F1F1F1" offset="55.9618477%"></stop>
            <stop stop-color="#CCCCCC" offset="100%"></stop>
        </linearGradient>
        <linearGradient x1="84.0005744%" y1="-21.4315792%" x2="145.009589%" y2="125.545021%" id="linearGradient-5">
            <stop stop-color="#FFFFFF" offset="0%"></stop>
            <stop stop-color="#CCCCCC" offset="100%"></stop>
        </linearGradient>
        <ellipse id="path-6" cx="3.81099127" cy="3.86497326" rx="3.81099127" ry="3.86497326"></ellipse>
        <filter x="-50%" y="-50%" width="200%" height="200%" filterUnits="objectBoundingBox" id="filter-7">
            <feMorphology radius="0.25" operator="dilate" in="SourceAlpha" result="shadowSpreadOuter1"></feMorphology>
            <feOffset dx="0" dy="0.5" in="shadowSpreadOuter1" result="shadowOffsetOuter1"></feOffset>
            <feComposite in="shadowOffsetOuter1" in2="SourceAlpha" operator="out" result="shadowOffsetOuter1"></feComposite>
            <feColorMatrix values="0 0 0 0 0   0 0 0 0 0   0 0 0 0 0  0 0 0 0.07 0" type="matrix" in="shadowOffsetOuter1"></feColorMatrix>
        </filter>
    </defs>
    <g id="Extension" stroke="none" stroke-width="1" fill="none" fill-rule="evenodd">
        <g id="button-2" transform="translate(-349.000000, -13.000000)">
            <g id="Group-10" transform="translate(347.000000, 9.000000)">
                <g id="Group-9">
                    <g id="settings-cog" filter="url(#filter-1)" transform="translate(20.972654, 37.656575) rotate(-343.000000) translate(-20.972654, -37.656575) translate(4.472654, 20.656575)" stroke="#727072" stroke-width="0.5">
                        <path d="M0.518922135,21.7251126 L2.54681522,20.313594 L2.85407174,20.0681125 L2.79262044,19.6998903 C2.60826652,18.840705 2.54681522,17.9201494 2.54681522,16.9995938 C2.54681522,16.0790382 2.60826652,15.1584825 2.79262044,14.2992973 L2.85407174,13.9310751 L2.54681522,13.6242232 L0.518922135,12.2127046 C0.0273116913,11.8444823 -0.157042225,11.1694082 0.150214302,10.6170748 L2.60826652,6.32114859 C2.79262044,5.95292634 3.22277958,5.70744484 3.65293871,5.70744484 C3.83729263,5.70744484 4.02164655,5.76881522 4.14454916,5.83018559 L6.41824746,6.87348196 L6.78695529,7.05759309 L7.09421182,6.81211159 C8.44614054,5.5847041 10.0438745,4.66414848 11.764511,4.1118151 L12.1332189,3.98907435 L12.1946702,3.55948173 L12.4404754,1.10466674 C12.5019267,0.490962997 12.9935371,-2.30926389e-14 13.6080502,-2.30926389e-14 L18.5241546,-2.30926389e-14 C19.1386677,-2.30926389e-14 19.6302781,0.490962997 19.6917294,1.10466674 L19.9375347,3.55948173 L19.998986,3.98907435 L20.3676938,4.1118151 C22.0883304,4.66414848 23.6860643,5.5847041 25.037993,6.81211159 L25.3452495,7.05759309 L25.7139574,6.87348196 L27.9876557,5.83018559 C28.1720096,5.76881522 28.2949122,5.70744484 28.4792661,5.70744484 C28.9094253,5.70744484 29.2781331,5.95292634 29.5239383,6.32114859 L31.9819905,10.6170748 C32.2892471,11.1694082 32.1663445,11.8444823 31.6132827,12.2127046 L29.5853896,13.6242232 L29.2781331,13.8697047 L29.3395844,14.2379269 C29.5239383,15.0971122 29.5853896,16.0176678 29.5853896,16.9382234 C29.5853896,17.858779 29.5239383,18.7793347 29.3395844,19.6385199 L29.2781331,20.0067421 L29.5853896,20.2522236 L31.6132827,21.6637423 C32.1048931,22.0319645 32.2892471,22.7070386 31.9819905,23.259372 L29.5239383,27.5552982 C29.3395844,27.9235205 28.9094253,28.169002 28.4792661,28.169002 C28.2949122,28.169002 28.1105583,28.1076316 27.9876557,28.0462612 L25.7139574,27.0029649 L25.3452495,26.8188537 L25.037993,27.0643352 C23.6860643,28.2917427 22.0883304,29.2122983 20.3676938,29.7646317 L19.998986,29.8873725 L19.9375347,30.3169651 L19.6917294,32.7717801 C19.6302781,33.3854838 19.1386677,33.8764468 18.5241546,33.8764468 L13.6080502,33.8764468 C12.9935371,33.8764468 12.5019267,33.3854838 12.4404754,32.7717801 L12.1946702,30.3169651 L12.1332189,29.8873725 L11.764511,29.7646317 C10.0438745,29.2122983 8.44614054,28.2917427 7.09421182,27.0643352 L6.78695529,26.8188537 L6.41824746,27.0029649 L4.14454916,28.0462612 C3.96019524,28.1076316 3.83729263,28.169002 3.65293871,28.169002 C3.22277958,28.169002 2.85407174,27.9235205 2.60826652,27.5552982 L0.150214302,23.259372 C-0.0955909196,22.768409 0.0273116913,22.0933349 0.518922135,21.7251126 Z" id="Path" fill="url(#linearGradient-2)"></path>
                        <g id="Group-4" transform="translate(9.040216, 9.991087)" fill="#F9F9F9">
                            <ellipse id="Oval-2" cx="7.03127889" cy="6.99376114" rx="7.03127889" ry="6.99376114"></ellipse>
                        </g>
                    </g>
                    <g id="Group-5" filter="url(#filter-3)" transform="translate(39.349475, 14.962471) rotate(-385.000000) translate(-39.349475, -14.962471) translate(28.849475, 3.962471)">
                        <path d="M0.870188578,14.1728147 L2.12676827,13.2810225 L2.31715913,13.1259282 L2.27908096,12.8932867 C2.16484644,12.3504567 2.12676827,11.7688531 2.12676827,11.1872495 C2.12676827,10.6056459 2.16484644,10.0240423 2.27908096,9.48121228 L2.31715913,9.24857084 L2.12676827,9.05470298 L0.870188578,8.16291079 C0.565563198,7.93026935 0.45132868,7.50376004 0.641719543,7.15479788 L2.16484644,4.44064775 C2.27908096,4.20800631 2.54562817,4.05291202 2.81217538,4.05291202 C2.92640989,4.05291202 3.04064441,4.09168559 3.11680076,4.13045916 L4.52569314,4.78960991 L4.75416217,4.90593063 L4.94455304,4.75083634 C5.78227283,3.97536487 6.77230532,3.39376127 7.83849415,3.04479911 L8.06696318,2.96725196 L8.10504136,2.69583695 L8.25735405,1.14489402 C8.29543222,0.757158284 8.6000576,0.446969697 8.98083932,0.446969697 L12.0270931,0.446969697 C12.4078748,0.446969697 12.7125002,0.757158284 12.7505784,1.14489402 L12.9028911,2.69583695 L12.9409693,2.96725196 L13.1694383,3.04479911 C14.2356271,3.39376127 15.2256596,3.97536487 16.0633794,4.75083634 L16.2537703,4.90593063 L16.4822393,4.78960991 L17.8911317,4.13045916 C18.0053662,4.09168559 18.0815226,4.05291202 18.1957571,4.05291202 C18.4623043,4.05291202 18.6907733,4.20800631 18.843086,4.44064775 L20.3662129,7.15479788 C20.5566038,7.50376004 20.4804474,7.93026935 20.1377439,8.16291079 L18.8811642,9.05470298 L18.6907733,9.20979727 L18.7288515,9.44243871 C18.843086,9.98526874 18.8811642,10.5668723 18.8811642,11.1484759 C18.8811642,11.7300795 18.843086,12.3116831 18.7288515,12.8545132 L18.6907733,13.0871546 L18.8811642,13.2422489 L20.1377439,14.1340411 C20.4423692,14.3666825 20.5566038,14.7931918 20.3662129,15.142154 L18.843086,17.8563041 C18.7288515,18.0889456 18.4623043,18.2440399 18.1957571,18.2440399 C18.0815226,18.2440399 17.967288,18.2052663 17.8911317,18.1664927 L16.4822393,17.507342 L16.2537703,17.3910212 L16.0633794,17.5461155 C15.2256596,18.321587 14.2356271,18.9031906 13.1694383,19.2521528 L12.9409693,19.3296999 L12.9028911,19.6011149 L12.7505784,21.1520579 C12.7125002,21.5397936 12.4078748,21.8499822 12.0270931,21.8499822 L8.98083932,21.8499822 C8.6000576,21.8499822 8.29543222,21.5397936 8.25735405,21.1520579 L8.10504136,19.6011149 L8.06696318,19.3296999 L7.83849415,19.2521528 C6.77230532,18.9031906 5.78227283,18.321587 4.94455304,17.5461155 L4.75416217,17.3910212 L4.52569314,17.507342 L3.11680076,18.1664927 C3.00256624,18.2052663 2.92640989,18.2440399 2.81217538,18.2440399 C2.54562817,18.2440399 2.31715913,18.0889456 2.16484644,17.8563041 L0.641719543,15.142154 C0.489406853,14.8319654 0.565563198,14.4054561 0.870188578,14.1728147 Z" id="Path" stroke="#727072" stroke-width="0.5" fill="url(#linearGradient-4)"></path>
                        <g id="Group-4" transform="translate(6.696456, 7.309269)">
                            <g id="Oval-2">
                                <use fill="black" fill-opacity="1" filter="url(#filter-7)" xlink:href="#path-6"></use>
                                <use stroke="#727072" stroke-width="0.5" fill="#F9F9F9" fill-rule="evenodd" xlink:href="#path-6"></use>
                            </g>
                        </g>
                    </g>
                </g>
            </g>
        </g>
    </g>
</svg>

<svg width="50" height="53" viewBox="0 0 50 53" xmlns="http://www.w3.org/2000/svg" xmlns:xlink="http://www.w3.org/1999/xlink"><title>Group 10</title><defs><filter x="-50%" y="-50%" width="200%" height="200%" filterUnits="objectBoundingBox" id="a"><feOffset dy="1" in="SourceAlpha" result="shadowOffsetOuter1"/><feGaussianBlur stdDeviation=".5" in="shadowOffsetOuter1" result="shadowBlurOuter1"/><feColorMatrix values="0 0 0 0 0 0 0 0 0 0 0 0 0 0 0 0 0 0 0.2 0" in="shadowBlurOuter1" result="shadowMatrixOuter1"/><feMerge><feMergeNode in="shadowMatrixOuter1"/><feMergeNode in="SourceGraphic"/></feMerge></filter><linearGradient x1="84.001%" y1="-21.432%" x2="145.01%" y2="125.545%" id="b"><stop stop-color="#ECECEC" offset="0%"/><stop stop-color="#CCC" offset="100%"/></linearGradient><filter x="-50%" y="-50%" width="200%" height="200%" filterUnits="objectBoundingBox" id="c"><feOffset dy="1" in="SourceAlpha" result="shadowOffsetOuter1"/><feGaussianBlur stdDeviation=".5" in="shadowOffsetOuter1" result="shadowBlurOuter1"/><feColorMatrix values="0 0 0 0 0 0 0 0 0 0 0 0 0 0 0 0 0 0 0.2 0" in="shadowBlurOuter1" result="shadowMatrixOuter1"/><feMerge><feMergeNode in="shadowMatrixOuter1"/><feMergeNode in="SourceGraphic"/></feMerge></filter><linearGradient x1="117.873%" y1="-116.047%" x2="145.01%" y2="125.545%" id="d"><stop stop-color="#F5F2F2" offset="0%"/><stop stop-color="#F1F1F1" offset="28.084%"/><stop stop-color="#F1F1F1" offset="55.962%"/><stop stop-color="#CCC" offset="100%"/></linearGradient><ellipse id="f" cx="3.811" cy="3.865" rx="3.811" ry="3.865"/><filter x="-50%" y="-50%" width="200%" height="200%" filterUnits="objectBoundingBox" id="e"><feMorphology radius=".25" operator="dilate" in="SourceAlpha" result="shadowSpreadOuter1"/><feOffset dy=".5" in="shadowSpreadOuter1" result="shadowOffsetOuter1"/><feComposite in="shadowOffsetOuter1" in2="SourceAlpha" operator="out" result="shadowOffsetOuter1"/><feColorMatrix values="0 0 0 0 0 0 0 0 0 0 0 0 0 0 0 0 0 0 0.07 0" in="shadowOffsetOuter1"/></filter></defs><g fill="none" fill-rule="evenodd"><g filter="url(#a)" transform="rotate(17 -37.99 33.6)" stroke="#727072" stroke-width=".5"><path d="M.519 21.725l2.028-1.411.307-.246-.061-.368c-.185-.86-.246-1.78-.246-2.7 0-.921.061-1.842.246-2.7l.061-.369-.307-.307-2.028-1.411c-.492-.369-.676-1.044-.369-1.596l2.458-4.296c.185-.368.615-.614 1.045-.614.184 0 .369.062.492.123l2.273 1.043.369.185.307-.246a12.76 12.76 0 0 1 4.67-2.7l.37-.123.06-.43.246-2.454C12.502.49 12.994 0 13.608 0h4.916c.615 0 1.106.491 1.168 1.105l.246 2.454.061.43.369.123a12.76 12.76 0 0 1 4.67 2.7l.307.246.369-.185 2.274-1.043c.184-.061.307-.123.491-.123.43 0 .8.246 1.045.614l2.458 4.296c.307.552.184 1.227-.369 1.596l-2.028 1.411-.307.246.062.368c.184.86.245 1.78.245 2.7 0 .92-.061 1.841-.245 2.7l-.062.369.307.245 2.028 1.412c.492.368.676 1.043.369 1.595l-2.458 4.296c-.184.369-.615.614-1.045.614-.184 0-.368-.061-.491-.123l-2.274-1.043-.369-.184-.307.245a12.76 12.76 0 0 1-4.67 2.7l-.369.123-.061.43-.246 2.455c-.062.613-.553 1.104-1.168 1.104h-4.916c-.614 0-1.106-.49-1.168-1.104l-.245-2.455-.062-.43-.368-.122a12.76 12.76 0 0 1-4.67-2.7l-.308-.246-.369.184-2.273 1.043c-.185.062-.308.123-.492.123-.43 0-.799-.245-1.045-.614L.15 23.26a1.252 1.252 0 0 1 .369-1.534z" fill="url(#b)"/><ellipse cx="7.031" cy="6.994" rx="7.031" ry="6.994" transform="translate(9.04 9.991)" fill="#F9F9F9"/></g><g filter="url(#c)" transform="rotate(-25 23.84 -49.574)"><path d="M.87 14.173l1.257-.892.19-.155-.038-.233a8.363 8.363 0 0 1-.152-1.706c0-.581.038-1.163.152-1.706l.038-.232-.19-.194L.87 8.163a.796.796 0 0 1-.228-1.008L2.165 4.44a.735.735 0 0 1 .647-.388c.114 0 .229.039.305.077l1.409.66.228.116.19-.155a7.872 7.872 0 0 1 2.894-1.706l.229-.078.038-.271.152-1.551c.038-.388.343-.698.724-.698h3.046c.38 0 .686.31.724.698l.152 1.55.038.272.228.078a7.872 7.872 0 0 1 2.894 1.706l.19.155.23-.116 1.408-.66c.114-.038.19-.077.305-.077.266 0 .495.155.647.388l1.523 2.714c.19.349.114.775-.228 1.008l-1.257.892-.19.155.038.232c.114.543.152 1.125.152 1.706 0 .582-.038 1.164-.152 1.707l-.038.232.19.155 1.257.892c.304.233.419.66.228 1.008l-1.523 2.714a.735.735 0 0 1-.647.388.707.707 0 0 1-.305-.078l-1.409-.659-.228-.116-.19.155a7.872 7.872 0 0 1-2.895 1.706l-.228.078-.038.271-.152 1.551c-.038.388-.343.698-.724.698H8.981c-.38 0-.686-.31-.724-.698l-.152-1.55-.038-.272-.229-.078a7.872 7.872 0 0 1-2.893-1.706l-.19-.155-.23.116-1.408.66c-.114.038-.19.077-.305.077-.266 0-.495-.155-.647-.388L.642 15.142a.801.801 0 0 1 .228-.97z" stroke="#727072" stroke-width=".5" fill="url(#d)"/><g transform="translate(6.696 7.31)"><use fill="#000" filter="url(#e)" xlink:href="#f"/><use stroke="#727072" stroke-width=".5" fill="#F9F9F9" xlink:href="#f"/></g></g></g></svg>
